!!!!SEGMENT: pl-sa--403-a-viii--003_ziegler--symphonia-ex-c-presto.krn
!!!cenid: 17xx:671
!!!COM: Ziegler
!!!COM-rismID: pe30003658
!!!CDT:
!!!CNT:
!!!OPR: Symphonia ex C
!!!OTL: Presto
!!!OMV: 003
!!!PDT:
!!!AGN: Secular
!!!SMS-siglum: PL-SA
!!!SMS-shelfmark: 403/A VIII
!!!SMS-shelfwork: 001-003 M
!!!SMS-variant:
!!!SMS-altvar:
!!!NIFC-rismSourceID: 1001035021
!!!NIFC-rismChildID: 1001035021
!!!NIFC-islandoraID:
!!!URL-pdf-islandora:
!!!URL-scan: https://bc.bdsandomierz.pl/dlibra/publication/1706/edition/1674/content @EN{Scan in the Sandomierz Diocese Digital Library} @PL{Skany w portalu Cyfrowa Biblioteka Diecezjalna w Sandomierzu}
!!!ONB-nifc: UWAGA: części Symphonii: Allegro molto, Andante, Presto
!!!AIN: 1 empty 1 viola 2 violn
!!!key:
**kern	**kern	**kern	**kern
*part4	*part3	*part2	*part1
*staff4	*staff3	*staff2	*staff1
*Iempty	*Iviola	*Ivioln	*Ivioln
*I"Baſso.	*I"Alto Viola.	*I"Violino Secundo.	*I"Violino Primo
*I'cb	*I'vla	*I'vl II	*I'vl I
*clefF4	*clefC3	*clefG2	*clefG2
*k[]	*k[]	*k[]	*k[]
*C:	*C:	*C:	*C:
*M6/8	*M6/8	*M6/8	*M6/8
=1	=1	=1	=1
!LO:TX:a:t=P:problem=mixed beam	!	!	!
!LO:TX:a:t=P:problem=all\right&colon; global	!LO:TX:a:t=P:problem=all\right&colon; global	!LO:TX:a:t=P:problem=all\right&colon; global	!LO:TX:a:t=P:problem=all\right&colon; global
!LO:TX:a:t=Presto	!LO:TX:a:t=Presto	!LO:TX:a:t=Presto	!LO:TX:a:t=Presto
8c\L	8cc\L	8cc\L	8cc\L
8C/	8cc\	8ee\	8ee\
8c\J	8cc\J	8ff\J	8ff\J
!LO:TX:a:t=P:problem=mixed beam	!	!	!
8B\L	8b\L	8gg\L	8gg\L
8BB/	8b\	8aa\	8aa\
8B\J	8b\J	8bb\J	8bb\J
=2	=2	=2	=2
!LO:TX:a:t=P:problem=mixed beam	!	!	!
8A\L	8a\L	8ccc\L	8ccc\L
8AA/	8a\	8aa\	8aa\
8A\J	8a\J	8ccc\J	8ccc\J
!LO:TX:a:t=P:problem=mixed beam	!	!	!
8G\L	8g\L	8bb\L	8bb\L
8GG/	8g\	8gg\	8gg\
8G\J	8g\J	8bb\J	8bb\J
=3	=3	=3	=3
!LO:TX:a:t=P:problem=mixed beam	!	!	!
8F\L	8f\L	8aa\L	8aa\L
8FF/	8f\	8ff\	8ff\
8F\J	8f\J	8aa\J	8aa\J
!LO:TX:a:t=P:problem=skreślone kreska taktowa	!	!LO:LB:g=original	!
8E\L	8e\L	8gg\L	8gg\L
8EE/	8e\	8ee\	8ee\
8E\J	8e\J	8gg\J	8gg\J
=4	=4	=4	=4
!LO:TX:a:t=P:problem=mixed beam	!	!	!
8D\L	8d\L	4.ff\	4.ff\
8DD/	8d\	.	.
8D\J	8d\J	.	.
8C/L	8c/L	4.ee\	4.ee\
8C/	8c/	.	.
8C/J	8c/J	.	.
=5	=5	=5	=5
!	!LO:TX:a:t=P:problem=mixed beam	!	!
8C/L	8cc\L	8c/L	8c/L
8C/	8c/	8e/	8e/
8C/J	8c/J	8f/J	8f/J
8C/L	8c/L	8g/L	8g/L
8C/	8c/	8a/	8a/
8C/J	8c/J	8b/J	8b/J
=6	=6	=6	=6
8C/L	8c/L	4.a/	4.cc\
8C/	8c/	.	.
8C/J	8c/J	.	.
8C/L	8c/L	4.g/	4.b\
8C/	8c/	.	.
8C/J	8c/J	.	.
=7	=7	=7	=7
!	!LO:TX:a:t=P:problem=tt. 7-8 zapisane repetycją	!	!
!LO:TX:a:t=P:problem=tt. 5-6 zapisane repetycją	!LO:TX:a:t=P:problem=mixed beam	!	!
8C/Lyy	8cc\Lyy	4.f/	4.a/
8C/yy	8c/yy	.	.
8C/Jyy	8c/Jyy	.	.
8C/Lyy	8c/Lyy	4.e/	4.g/
8C/yy	8c/yy	.	.
8C/Jyy	8c/Jyy	.	.
=8	=8	=8	=8
8C/Lyy	8c/Lyy	4.d/	4.f/
8C/yy	8c/yy	.	.
8C/Jyy	8c/Jyy	.	.
8C/Lyy	8c/Lyy	4.c/	4.e/
8C/yy	8c/yy	.	.
8C/Jyy	8c/Jyy	.	.
=9	=9	=9	=9
4.C/	4c/	8ee\L	8ee\L
.	.	8gg\	8gg\
.	4r	8ff\J	8ff\J
4r	.	8ee\L	8ee\L
.	4cc\	8dd\	8dd\
8c\	.	8cc\J	8cc\J
=10	=10	=10	=10
4.B\	4.b\	8dd\L	8dd\L
.	.	8ee\	8ee\
.	.	8ff#X\J	8ff#X\J
!	!	!	!LO:LB:g=original
4r	4r	8gg\L	8gg\L
.	.	8ff#\	8ff#\
8r	8r	8gg\J	8gg\J
!LO:LB:g=original	!	!	!
=11	=11	=11	=11
!LO:N:vis=4	!	!	!
4.A\	4.a\	8cc\L	8cc\L
.	.	8ee\	8ee\
.	.	8dd\J	8dd\J
4r	4r	8cc\L	8cc\L
.	.	8b\	8b\
8A\	8a\	8a\J	8a\J
!	!LO:LB:g=original	!	!
=12	=12	=12	=12
!LO:TX:a:t=P:problem=mixed beam	!	!	!
8G\L	8g\L	8b\L	8b\L
8GG/	8g\	8dd\	8dd\
8G\J	8g\J	8gg\J	8gg\J
4G\	4g\	8gg\L	8gg\L
.	.	8ff#X\	8ff#X\
8r	8r	8gg\J	8gg\J
=13	=13	=13	=13
4.G\	4.g\	8b\L	8b\L
.	.	8dd\	8dd\
.	.	8dd\J	8dd\J
4.c\	4.b\	8dd\L	8dd\L
!	!	!LO:TX:a:t=P:problem=# w funkcji kasownika	!
!	!	!LO:SIC:v:s=8cn	!
.	.	8cc#X\	8cc\
.	.	8dd\J	8dd\J
=14	=14	=14	=14
!	!	!LO:TX:a:t=P:problem=mixed beam	!LO:TX:a:t=P:problem=mixed beam
4.A\	4.a\	8f#X/L	8f#X/L
.	.	8dd\	8dd\
.	.	8dd\J	8dd\J
4.c\	4.cc\	8dd\L	8dd\L
!	!	!	!LO:TX:a:t=P:problem=# w funkcji kasownika
!	!	!	!LO:SIC:v:s=8ccn
.	.	8cc\	8cc#X\
.	.	8dd\J	8dd\J
!	!	!LO:LB:g=original	!
=15	=15	=15	=15
!	!	!LO:TX:a:t=P:problem=mixed beam	!LO:TX:a:t=P:problem=mixed beam
4.B\	4.b\	8g/L	8g/L
.	.	8dd\	8dd\
.	.	8dd\J	8dd\J
4.G\	4.g\	8dd\L	8dd\L
.	.	8cc\	8cc\
.	.	8dd\J	8dd\J
=16	=16	=16	=16
!	!	!LO:TX:a:t=P:problem=mixed beam	!
4.F#X\	4.f#X\	8a/L	8a\L
.	.	8dd\	8dd\
.	.	8dd\J	8dd\J
4.D\	4.d\	8dd\L	8dd\L
.	.	8cc\	8cc\
.	.	8dd\J	8dd\J
=17	=17	=17	=17
8G\L	8g\L	4.b\	4.b\
8G\	8g\	.	.
8G\J	8g\J	.	.
8G\L	8g\L	4.dd\	4.dd\
8G\	8g\	.	.
8G\J	8g\J	.	.
=18	=18	=18	=18
8A\L	8a\L	4.f#X/	4.f#X/
8A\	8a\	.	.
8A\J	8a\J	.	.
8A\L	8cc\L	4.dd\	4.dd\
8A\	8cc\	.	.
8A\J	8cc\J	.	.
!	!	!	!LO:LB:g=original
=19	=19	=19	=19
8B\L	8b\L	4.g/	4.g/
8B\	8b\	.	.
8B\J	8b\J	.	.
8B\L	8g\L	4.dd\	4.dd\
8B\	8g\	.	.
8B\J	8g\J	.	.
=20	=20	=20	=20
8F#X\L	8f#X\L	4.a/	4.a/
8F#\	8f#\	.	.
8F#\J	8f#\J	.	.
8F#\L	8d\L	4.dd\	4.dd\
8F#\	8d\	.	.
8F#\J	8d\J	.	.
=21	=21	=21	=21
4G\	4g\	8b\L	8g\L|
!	!	!	!LO:TX:a:t=P:problem=niejednoznaczny zapis łuk\ligatura [przyjęto&colon; ligatura] w tt. 21-24
.	.	8ee\	[8ee\
8G\	8g\	8ee\J	8ee\J]
4F#X\	4f#X\	8ee\L	8ee\L|
.	.	8dd\	[8dd\
!	!	!LO:TX:a:t=d	!
8F#\	8f#\	8dd\J	8dd\J]
!LO:LB:g=original	!	!	!
=22	=22	=22	=22
4E\	4e\	8dd\L	8ee\L|
.	.	8cc\	[8cc\
8E\	8e\	8cc\J	8cc\J]
!	!LO:LB:g=original	!	!
4D\	4d\	8cc\L	8cc\L|
.	.	8b\	[8b\
!	!	!LO:TX:a:t=h	!
8D\	8d\	8b\J	8b\J]
=23	=23	=23	=23
4C/	4c/	8b/L	8b\L|
.	.	8a/	[8a\
8C/	8c/	8a/J	8a\J]
!	!LO:SIC:v:s=4C#	!	!
!	!LO:TX:a:t=P:problem=♯ w funkcji kasownika	!LO:TX:a:t=P:problem=mixed beam	!
4C#X/	4B#/	8a/L	8a\L|
.	.	8dd\	(8ee\
!	!LO:SIC:v:s=8C#	!	!
8C#/	8B#/	8g/J	8g\J)
=24	=24	=24	=24
4D/	4d\	8g/L	8g/L|
.	.	8f#X/	[8f#X/
8D/	8d\	8f#/J	8f#/J]
4F#X\	4f#X\	8f#/L	8f#/L
.	.	8a/	8a/
8F#\	8f#\	8c/J	8c/J
=25	=25	=25	=25
4G\	4g\	8B/L	8B/L
.	.	8d/	8d/
8BB/	8B/	8g/J	8g/J
4C/	4cn/	4A/	4A/
8D/	8d/	8f#X/	8f#X/
=26	=26	=26	=26
8GG/L	8g\L	8g/L	8g/L
8BB/	8d\	8d/	8d/
8D/J	8B\J	8B/J	8B/J
4G\	4G/	4.G/	4.G/
8r	8r	.	.
=27	=27	=27	=27
!LO:TX:a:t=4	!	!	!LO:TX:a:t=P:problem=mixed beam
!LO:N:vis=00	!	!	!
0.r	8D/L	2.r	8d/L
.	8D/	.	8dd\
.	8D/J	.	8cc\J
.	8D/L	.	8b\L
.	8D/	.	8a\
.	8D/J	.	8g\J
!	!	!LO:LB:g=original	!LO:LB:g=original
=28	=28	=28	=28
!	!LO:TX:a:t=bis	!LO:TX:a:t=P:problem=mixed beam	!
.	8D/L	8d/L	4.f#X/
.	8D/	8dd\	.
.	8D/J	8cc\J	.
.	8D/L	8b\L	4.g/
.	8D/	8a\	.
.	8D/J	8g\J	.
=29	=29	=29	=29
!	!	!	!LO:TX:a:t=P:problem=tt. 29-30 zapisane repetycją
!	!LO:TX:a:t=P:problem=tt. 29-30 zapisane repetycją, adnotacja "bis"	!	!LO:TX:a:t=P:problem=mixed beam
.	8D/Lyy	4.f#X/	8d/Lyy
.	8D/yy	.	8dd\yy
.	8D/Jyy	.	8cc\Jyy
.	8D/Lyy	4.g/	8b\Lyy
.	8D/yy	.	8a\yy
.	8D/Jyy	.	8g\Jyy
!	!	!	!LO:LB:g=original
=30	=30	=30	=30
!	!	!LO:TX:a:t=P:problem=mixed beam	!
.	8D/Lyy	8a/L	4.f#X/yy
.	8D/yy	8dd\	.
.	8D/Jyy	8cc\J	.
.	8D/Lyy	8b/L	4.g/yy
.	8D/yy	8a/	.
.	8D/Jyy	8g/J	.
=31	=31	=31	=31
!LO:TX:a:t=P:problem=mixed beam	!LO:TX:a:t=P:problem=mixed beam	!	!
8c\L	8cc\L	8ee\L	8ee\L
8C/	8c/	8dd\	8dd\
8c\J	8cc\J	8cc\J	8cc\J
8c\L	8cc\L	8b/L	8b\L
8c\	8cc\	8a/	8a\
8c\J	8cc\J	8g/J	8g\J
=32	=32	=32	=32
8d\L	8dd\L	8f#X/L	8f#X/L
8d\	8dd\	8e/	8e/
8d\J	8dd\J	8d/J	8d/J
8F#X\L	8f#X\L	8dd\L	8dd\L
8F#\	8f#\	8ee\	8ee\
8F#\J	8f#\J	8cc\J	8cc\J
!	!LO:LB:g=original	!	!
=33	=33	=33	=33
4G\	4g\	8b\L	8b\L
.	.	8dd\	8dd\
8BB/	8B/	8g\J	8g\J
!	!	!LO:TX:a:t=P:problem=mixed beam	!
4C/	4c/	8a\L	8a/L
.	.	8cc\	8cc/
8D/	8d/	8f#X/J	8f#X/J
=34	=34	=34	=34
8GG/L	8G/L	8g/L	8g/L
8BB/	8B/	8d/	8d/
8D/J	8d/J	8B/J	8B/J
8G\L	8g\L	4.G/	4.G/
8A\	8a\	.	.
8B\J	8b\J	.	.
!LO:TX:a:t=[segno]:problem=znak [segno] na kresce taktowej	!LO:TX:a:t=[segno]:problem=znak [segno] na kresce taktowej	!LO:TX:a:t=[segno]:problem=znak [segno] na kresce taktowej	!LO:TX:a:t=[segno]:problem=znak [segno] na kresce taktowej
!LO:LB:g=original	!	!	!
=35||	=35||	=35||	=35||
!LO:TX:a:t=P:problem=mixed beam	!	!	!
8G\L	8g\L	8g\L	8g\L
8GG\	8g\	8b\	8b\
8G\J	8g\J	8cc\J	8cc\J
!LO:TX:a:t=P:problem=mixed beam	!	!	!
8F#X\L	8f#X\L	8dd\L	8dd\L
!LO:SIC:v:s=8FF#	!	!	!
8FF\	8f#\	8ee\	8ee\
!	!	!LO:TX:a:t=P:problem=♯ above	!
8F#\J	8f#\J	8ff#X\J	8ff#X\J
=36	=36	=36	=36
!LO:TX:a:t=P:problem=mixed beam	!	!	!
8E\L	8e\L	8gg\L	8gg\L
!	!	!LO:TX:a:t=P:problem=♯ above	!LO:SIC:v:s=8ff#
8EE\	8e\	8ff#X\	8ff\
8E\J	8e\J	8gg\J	8gg\J
8BB/L	8B/L	4g/	4g/
8BB/	8B/	.	.
8BB/J	8B/J	8gg\	8gg\
=37	=37	=37	=37
8C/L	8c\L	8gg\L	8gg\L
8C/	8c\	8ff#X\	8ff#X\
8C/J	8c\J	8gg\J	8gg\J
8D/L	8d\L	4aa\	4aa\
8D/	8d\	.	.
8D/J	8d\J	8cc\	8cc\
=38	=38	=38	=38
8G\L	4.G/	8b\L	8b\L
8D\	.	8cc\	8cc\
8BB\J	.	8dd\J	8dd\J
4GG/	4r	4g/	4g/
8r	8r	8ryy	8ryy
!	!	!	!LO:LB:g=original
=39	=39	=39	=39
!LO:TX:a:t=P:problem=mixed beam	!	!LO:SIC:v:s=8a	!
8A\L	8a\L	8g/L	8a\L
8AA/	8a\	8cc/	8cc\
8A\J	8a\J	8dd/J	8dd\J
!LO:TX:a:t=P:problem=mixed beam	!	!LO:LB:g=original	!
8G\L	8g\L	8ee\L	8ee\L
8GG/	8g\	8ff#X\	8ff#X\
!	!	!	!LO:SIC:v:s=8ggn:t=lub 8gg#
8G\J	8g\J	8gg\J	8gg#X\J
=40	=40	=40	=40
!LO:TX:a:t=P:problem=mixed beam	!	!	!
8F\L	8f\L	8aa\L	8aa\L
8FF/	8f\	8gg#X\	8gg#X\
8F\J	8f\J	8aa\J	8aa\J
8C/L	8c\L	4a/	4a/
8C/	8c\	.	.
8C/J	8c\J	8gg#\	8gg#\
=41	=41	=41	=41
8D/L	8d\L	8aa\L	8aa\L
8D/	8d\	8gg#X\	8gg#X\
8D/J	8d\J	8bb\J	8aa\J
!	!LO:LB:g=original	!	!
8E/L	8e\L	8bb\L	8bb\L
8E/	8e\	8gg#\	8gg#\
8E/J	8e\J	8dd\J	8dd\J
=42	=42	=42	=42
8A\L	4.A/	8cc\L	8cc\L
8E\	.	8dd\	8dd\
8C\J	.	8ee\J	8ee\J
4AA/	4r	4a/	4a/
8r	8r	8ee\	8ee\
=43	=43	=43	=43
!LO:N:vis=2	!LO:N:vis=2	!	!
4.r	4.r	8ee\L	8ee\L
.	.	8ccc\	8ccc\
.	.	8ccc\	8ccc\
!LO:LB:g=original	!	!	!
8r	4r	8ccc\	8ccc\
8r	.	8ccc\	8ccc\
8A\	8a\	8ccc\J	8ccc\J
=44	=44	=44	=44
4.G#X\	4.g#X\	8ccc\L	8ccc\L
.	.	8bb\	8bb\
.	.	8bb\	8bb\
!LO:N:vis=2	!	!	!
4.r	4r	8bb\	8bb\
.	.	8bb\	8bb\
.	8r	8ee\J	8ee\J
=45	=45	=45	=45
!LO:N:vis=2	!LO:N:vis=2	!LO:TX:a:t=P:problem=brak taktu	!
4.r	4.r	2.ryy	8ee\L
.	.	.	8bb\
.	.	.	8bb\
4r	4r	.	8bb\
.	.	.	8bb\
8Gn\	8gn\	.	8bb\J
=46	=46	=46	=46
4.F#X\	4.f#X\	8bb\L	8bb\L
.	.	8aa\	8aa\
.	.	8aa\	8aa\
!LO:N:vis=2	!	!	!
4.r	4r	8aa\	8aa\
.	.	8aa\	8aa\
.	8r	8aa\J	8aa\J
!	!	!	!LO:LB:g=original
=47	=47	=47	=47
!LO:N:vis=2	!LO:N:vis=2	!	!
4.r	4.r	8dd\L	8dd\L
.	.	8aa\	8aa\
.	.	8aa\	8aa\
4r	4r	8aa\	8aa\
.	.	8aa\	8aa\
8Fn\	8fn\	8aa\J	8aa\J
=48	=48	=48	=48
8E/L	8e\L	8gg#X\L	8gg#X\L
8E/	8e\	8aa\	8aa\
8E/J	8e\J	8bb\J	8bb\J
8E/L	8e\L	8dd\L	8dd\L
8E/	8e\	8ee\	8ee\
8E/J	8e\J	8ff\J	8ff\J
=49	=49	=49	=49
8E/L	8e\L	8b\L	8b\L
8E/	8e\	8cc\	8cc\
8E/J	8e\J	8dd\J	8dd\J
8E/L	8e\L	8g#X/L	8g#X/L
8E/	8e\	8a/	8a/
8E/J	8e\J	8b/J	8b/J
=50	=50	=50	=50
!	!LO:TX:a:t=P:problem=brak taktu	!	!
8E/L	2.ryy	8d/L	8d/L
8E/	.	8e/	8e/
8E/J	.	8f/J	8f/J
!	!	!LO:LB:g=original	!
8E/L	.	8B/L	8B/L
8E/	.	8c/	8c/
8E/J	.	8d/J	8d/J
=51	=51	=51	=51
!	!	!LO:SIC:v:s=8G#	!
8E/L	8e\L	8G/L	8G#X/L
8E/	8e\	8A/	8A/
8E/J	8e\J	8B/J	8B/J
!	!LO:SIC:v:s=8g#	!	!
8G#X\L	8g\L	8f/L	8f/L
!	!LO:SIC:v:s=8g#	!	!
8G#\	8g\	8e/	8e/
!	!LO:SIC:v:s=8g#	!	!
8G#\J	8g\J	8d/J	8d/J
=52	=52	=52	=52
8A\L	8a\L	8c/L	8c/L
8A\	8a\	8d/	8e/
8A\J	8a\J	8e/J	8a/J
4D/	4d\	8B/L	8B/L
.	.	8d/	8d/
!	!	!	!LO:TX:b:t=P:problem=♯ below
8E/	8e\	8g#X/J	8g#X/J
!	!LO:LB:g=original	!	!
=53	=53	=53	=53
8AA/L	8A/L	8a/L	8a/L
8C/	8c/	8e/	8e/
8E/J	8e/J	8c/J	8c/J
4AA/	4a\	4A/	4.A/
8r	8r	8r	.
!LO:LB:g=original	!	!	!
=54	=54	=54	=54
!LO:TX:a:t=8	!	!	!LO:TX:a:t=P:problem=mixed beam
!LO:N:vis=00	!	!	!
0.r	4.e\	8e/L	8e/L
.	.	8e/	8ee\
.	.	8e/J	8dd\J
.	4r	8e/L	8cc\L
.	.	8e/	8b\
.	8r	8e/J	8a\J
=55	=55	=55	=55
!	!LO:TX:a:t=P:problem=mixed beam	!	!
.	8E/L	8e/L	4.g#X/
.	8e\	8e/	.
.	8d\J	8e/J	.
.	8c/L	8e/L	4.a/
.	8B/	8e/	.
.	8A/J	8e/J	.
=56	=56	=56	=56
!	!	!	!LO:TX:a:t=P:problem=tt. 56-57 zapisane repetycją
!	!	!LO:TX:a:t=P:problem=tt. 56-57 zapisane repetycją	!LO:TX:a:t=P:problem=mixed beam
.	4.G#X/	8e/Lyy	8e/Lyy
.	.	8e/yy	8ee\yy
.	.	8e/Jyy	8dd\Jyy
.	4.A/	8e/Lyy	8cc\Lyy
.	.	8e/yy	8b\yy
.	.	8e/Jyy	8a\Jyy
=57	=57	=57	=57
!	!LO:TX:a:t=P:problem=tt. 57-58 zapisane repetycją	!	!
!	!LO:TX:a:t=P:problem=mixed beam	!	!
.	8E/Lyy	8e/Lyy	4.g#X/yy
.	8e\yy	8e/yy	.
.	8d\Jyy	8e/Jyy	.
.	8c/Lyy	8e/Lyy	4.a/yy
.	8B/yy	8e/yy	.
.	8A/Jyy	8e/Jyy	.
=58	=58	=58	=58
!LO:N:vis=00	!	!	!
0.r	4.G#X/yy	4.g#X/	8ff\L
.	.	.	8ee\
.	.	.	8dd\J
.	4.A/yy	4.a/	8cc\L
.	.	.	8b\
.	.	.	8a\J
=59	=59	=59	=59
!	!LO:SIC:v:s=4.G#	!	!LO:TX:a:t=P:problem=takt zapisane repetycją
.	4.G/	4.g#X/	8ff\Lyy
.	.	.	8ee\yy
.	.	.	8dd\Jyy
.	4.A/	4.a/	8cc\Lyy
.	.	.	8b\yy
.	.	.	8a\Jyy
=60	=60	=60	=60
.	4c\	4c/	8aa\L
.	.	.	8gg\
.	8c\	8c/	8ff\J
.	4d\	4d/	8ee\L
.	.	.	8dd\
.	8f\	8f/	8cc\J
=61	=61	=61	=61
.	4e\	4e/	8b/L
.	.	.	8a/
.	8e\	8e/	8g#X/J
.	4A/	4.A/	4.a/
.	8r	.	.
=62	=62	=62	=62
!LO:TX:a:t=P:problem=mixed beam	!	!	!
8c\L	8cc\L	8cc\L	8cc\L
8C/	8cc\	8ee\	8ee\
8c\J	8cc\J	8ff\J	8gg\J
!LO:TX:a:t=P:problem=mixed beam	!	!	!
8B\L	8b\L	8gg\L	8gg\L
8BB/	8b\	8aa\	8aa\
8B\J	8b\J	8bb\J	8bb\J
=63	=63	=63	=63
!LO:TX:a:t=P:problem=mixed beam	!	!	!
8A\L	8a\L	8ccc\L	8ccc\L
!	!	!LO:SIC:v:s=8aa	!
8AA/	8a\	8bb\	8aa\
8A\J	8a\J	8ccc\J	8ccc\J
!LO:TX:a:t=P:problem=mixed beam	!	!	!
8G\L	8g\L	8bb\L	8bb\L
8GG/	8g\	8gg\	8gg\
8G\J	8g\J	8bb\J	8bb\J
!	!	!LO:LB:g=original	!
=64	=64	=64	=64
!LO:TX:a:t=P:problem=mixed beam	!	!	!
8F\L	8f\L	8aa\L	8aa\L
8FF/	8f\	8ff\	8ff\
8F\J	8f\J	8aa\J	8aa\J
!LO:TX:a:t=P:problem=mixed beam	!	!	!
8E\L	8e\L	8gg\L	8gg\L
8EE/	8e\	8ee\	8ee\
8E\J	8e\J	8gg\J	8gg\J
!	!LO:LB:g=original	!	!
=65	=65	=65	=65
!LO:TX:a:t=P:problem=mixed beam	!	!	!
8D\L	8d\L	4.ff\	4.ff\
8DD/	8d\	.	.
8D\J	8d\J	.	.
!LO:TX:a:t=P:problem=skreślona kreska taktowa	!	!	!
8C/L	8c\L	4.ee\	4.ee\
8C/	8c\	.	.
8C/J	8c\J	.	.
=66	=66	=66	=66
8C/L	8c\L	8c/L	8c/L
8CC/	8c\	8e/	8e/
8CC/J	8c\J	8f/J	8f/J
8CC/L	8c\L	8g/L	8g/L
8CC/	8c\	8a/	8a/
8CC/J	8c\J	8b/J	8b/J
=67	=67	=67	=67
8CC/L	8c/L	4.a/	4.cc\
8CC/	8c/	.	.
8CC/J	8c/J	.	.
8CC/L	8c/L	4.g/	4.b\
8CC/	8c/	.	.
8CC/J	8c/J	.	.
=68	=68	=68	=68
!	!LO:TX:a:t=P:problem=tt. 68-69 zapisane repetycją	!	!
8CC/L	8c\Lyy	4.f/	4.a/
8CC/	8c\yy	.	.
8CC/J	8c\Jyy	.	.
8CC/L	8c\Lyy	4.e/	4.g/
8CC/	8c\yy	.	.
8CC/J	8c\Jyy	.	.
!LO:LB:g=original	!	!	!LO:LB:g=original
=69	=69	=69	=69
8EE/L	8c/Lyy	4.d/	4.f/
8EE/	8c/yy	.	.
8EE/J	8c/Jyy	.	.
8EE/L	8c/Lyy	4.c/	4.e/
8EE/	8c/yy	.	.
8EE/J	8c/Jyy	.	.
=70	=70	=70	=70
8E\L	8e\L	8cc\L	8cc\L
8E\	8e\	8gg\	8gg\
8E\J	8e\J	8ff\J	8ff\J
8E\L	8e\L	8ee\L	8ee\L
8E\	8e\	8dd\	8dd\
8E\J	8e\J	8cc\J	8cc\J
=71	=71	=71	=71
8E\L	8e\L	8b-X\L	8b-X/L
8E\	8e\	8a\	8a/
8E\J	8e\J	8b-\J	8b-/J
8F\L	8f\L	8a/L	8a/L
8F\	8f\	8g/	8g/
8F\J	8f\J	8f/J	8f/J
=72	=72	=72	=72
!	!LO:SIC:v:s=8f#	!	!
8F#X\L	8f\L	8dd\L	8dd\L
!	!LO:SIC:v:s=8f#	!	!
8F#\	8f\	8aa\	8aa\
!	!LO:SIC:v:s=8f#	!	!
8F#\J	8f\J	8gg\	8gg\J
!	!LO:SIC:v:s=8g	!LO:SIC:v:s=8ff#	!
8F#\L	8f\L	8ff\	8ff#X\L
!	!LO:SIC:v:s=8g	!	!
8F#\	8f\	8ee\	8ee\
!	!LO:SIC:v:s=8g	!	!
8F#\J	8f\J	8dd\J	8dd\J
=73	=73	=73	=73
!LO:SIC:v:s=8F#	!LO:SIC:v:s=8f#	!	!
8F\L	8f\L	8cc\L	8cc\L
!LO:SIC:v:s=8F#	!LO:SIC:v:s=8f#	!	!
8F\	8f\	8bn\	8bn\
!LO:SIC:v:s=8F#	!LO:SIC:v:s=8f#	!	!
8F\J	8f\J	8cc\J	8cc\J
8G\L	8g\L	8b\L	8b\L
8G\	8g\	8a\	8a\
8G\J	8g\J	8g\J	8g\J
=74	=74	=74	=74
!LO:TX:a:t=5	!	!	!
!LO:N:vis=00	!	!	!
0.r	4cc\	8ee\L	8ee\L
.	.	8aa\	8aa\
.	8cc\	8aa\	8aa\
.	4b\	8aa\	8aa\
.	.	8gg\	8gg\
.	8b\	8gg\J	8gg\J
=75	=75	=75	=75
.	4a\	8gg\L	8gg\L
.	.	8ff\	8ff\
.	8a\	8ff\	8ff\J
.	4g\	8ff\	8ff\L
.	.	8ee\	8ee\
.	8g\	8ee\J	8ee\J
!	!LO:LB:g=original	!LO:LB:g=original	!
=76	=76	=76	=76
.	4f#X\	8ee\L	8ee\L
.	.	8dd\	8dd\
.	8f#\	8dd\J	8dd\J
.	4d\	4f#X/	8dd\L
.	.	.	8aa\
.	8c\	8f#/	8cc\J
=77	=77	=77	=77
!	!LO:TX:a:t=P:problem=♯ w funkcji kasownika	!	!
!	!LO:SIC:v:s=4Bn	!	!
.	4B#/	4g/	8cc\L
.	.	.	8b\
!	!LO:SIC:v:s=8Bn	!	!
.	8B#/	8g/	8b\J
!	!	!	!LO:LB:g=original
!	!LO:SIC:v:s=4Bn	!	!LO:TX:a:t=P:problem=mixed beam
.	4B#/	4g/	8b\L
.	.	.	8dd\
.	8c/	8g/	8f/J
=78	=78	=78	=78
2.r	4c\	4e/	8e/L
.	.	.	8g/
.	8e\	8e/	8cc/J
.	4f\	4fn/	4d/
.	8g\	8f/	8b\
=79	=79	=79	=79
8C/L	4.c/	4.c/	8cc/L
8C/	.	.	8g/
8C/J	.	.	8e/J
4C/	4r	4r	4.c/
8r	8r	8r	.
=80	=80	=80	=80
*	*	*tremolo	*
!	!	!LO:TX:a:t=P:problem=tremolo zapisane za pomocą chorągiewki w tt. 80-83	!
4.GG/	8G/L	8G/L	8G/L
.	8G/	8G/	8g/
.	8G/J	8G/	8f/J
4r	8G/L	8G/J	8e/L
*	*	*Xtremolo	*
.	8G/	8G/L	8d/
!	!LO:TX:a:t=bis	!	!
8r	8G/J	8G/J	8c/J
=81	=81	=81	=81
*	*	*tremolo	*
!LO:TX:a:t=P:problem=mixed beam	!	!	!
8GG/L	8G/L	8G/L	4.B/
8G\	8G/	8G/	.
8F\J	8G/J	8G/	.
8E\L	8G/L	8G/J	4.c/
*	*	*Xtremolo	*
8D\	8G/	8G/L	.
8C\J	8G/J	8G/J	.
=82	=82	=82	=82
*	*	*tremolo	*
!	!LO:TX:a:t=P:problem=tt. 82-83 zapisane repetycją	!LO:TX:a:t=P:problem=tt. 82-83 zapisane repetycją	!LO:TX:a:t=P:problem=tt. 82-83 zapisane repetycją
4.BB/	8G/Lyy	8G/Lyy	8G/Lyy
.	8G/yy	8G/yy	8g/yy
.	8G/Jyy	8G/yy	8f/Jyy
4.C/	8G/Lyy	8G/Jyy	8e/Lyy
*	*	*Xtremolo	*
.	8G/yy	8G/Lyy	8d/yy
.	8G/Jyy	8G/Jyy	8c/Jyy
!LO:LB:g=original	!	!	!
=83	=83	=83	=83
*	*	*tremolo	*
8D\L	8G/Lyy	8G/Lyy	4.B/yy
8G\	8G/yy	8G/yy	.
8F\J	8G/Jyy	8G/yy	.
8E\L	8G/Lyy	8G/Jyy	4.c/yy
*	*	*Xtremolo	*
8D\	8G/yy	8G/Lyy	.
8C\J	8G/Jyy	8G/Jyy	.
=84	=84	=84	=84
8F\L	8f\L	8aa\L	8aa\L
8F\	8f\	8gg\	8gg\
8F\J	8f\J	8ff\	8ff\J
8F\L	8f\L	8ee\	8ee\L
8F\	8f\	8dd\	8dd\
8F\J	8f\J	8cc\J	8cc\J
=85	=85	=85	=85
8G\L	8g\L	8b/L	8b/L
8G\	8g\	8a/	8a/
8G\J	8g\J	8g/J	8g/J
!	!	!LO:TX:a:t=P:problem=mixed beam	!LO:TX:a:t=P:problem=mixed beam
8G\L	8g\L	8a\L	8a\L
8G\	8g\	8dd\	8dd\
8G\J	8g\J	8f/J	8f/J
=86	=86	=86	=86
8G\L	8g\L	8e/L	8e/L
8G\	8g\	8g/	8g/
8G\J	8g\J	8cc/J	8cc/J
8G\L	8g\L	8d/L	8d/L
8G\	8g\	8f/	8f/
8G\J	8g\J	8b/J	8b/J
!	!	!	!LO:LB:g=original
=87	=87	=87	=87
!	!	!	!LO:TX:a:t=P:problem=skreślone trzy nuty
8C/L	8c/L	8cc/L	8cc/L
8C/	8c/	8g/	8g/
!	!	!	!LO:SIC:v:s=8e
8C/J	8c/J	8e/J	8d/J
8C/L	8c/L	8g/L	8g/L
8C/	8c/	8e/	8e/
8C/J	8c/J	8c/J	8c/J
=88	=88	=88	=88
!	!LO:TX:a:t=P:problem=takt zapisane repetycją	!	!
8C/L	8c/Lyy	8c/L	8c/L
8C/	8c/yy	8c/	8c/
8C/J	8c/Jyy	8c/J	8c/J
8C/L	8c/Lyy	8c/L	8c/L
8C/	8c/yy	8c/	8c/
8C/J	8c/Jyy	8c/J	8c/J
=89	=89	=89	=89
4C/	4.c/	4.c/	4.c/
8r	.	.	.
!LO:N:vis=2	!	!	!
4.r	4r	4r	4r
.	8r	8r	8r
!LO:TX:a:t=[segno]:problem=znak [segno] na kresce taktowej	!LO:TX:a:t=[segno]:problem=znak [segno] na kresce taktowej	!LO:TX:a:t=[segno]:problem=znak [segno] na kresce taktowej	!LO:TX:a:t=[segno]:problem=znak [segno] na kresce taktowej
==	==	==	==;;
*-	*-	*-	*-
!!!system-decoration: [s1,s2,s3,s4]
!!!RDF**kern: | = vertical stroke
!!!ENC: Marta Lawrence
!!!END: 2020-11-15
!!!ENC: Andrzej Kubiczek
!!!END: 2020-06-07
!!!YEC: Copyright 2022 Narodowy Instytut Fryderyka Chopina (https://polishscores.org)
!!!YEM: License CC-BY-4.0 (https://creativecommons.org/licenses/by/4.0)
